images/SVG/admin.svg

<svg height="512pt" viewBox="-61 0 512 512" width="512pt" xmlns="http://www.w3.org/2000/svg"><path d="m45 512c-8.289062 0-15-6.710938-15-15v-62c0-8.289062 6.710938-15 15-15s15 6.710938 15 15v62c0 8.289062-6.710938 15-15 15zm0 0" fill="#beebfa"/><path d="m345 512c-8.289062 0-15-6.710938-15-15v-62c0-8.289062 6.710938-15 15-15s15 6.710938 15 15v62c0 8.289062-6.710938 15-15 15zm0 0" fill="#7ed8f6"/><path d="m360 315v60c0 8.398438-6.597656 15-15 15s-15-6.601562-15-15v-45h-120v45c0 8.398438-6.597656 15-15 15s-15-6.601562-15-15v-45h-120v45c0 8.398438-6.597656 15-15 15s-15-6.601562-15-15v-60c0-8.402344 6.597656-15 15-15h135v-45c0-8.402344 6.597656-15 15-15s15 6.597656 15 15v45h135c8.402344 0 15 6.597656 15 15zm0 0" fill="#beebfa"/><path d="m360 315v60c0 8.398438-6.597656 15-15 15s-15-6.601562-15-15v-45h-120v45c0 8.398438-6.597656 15-15 15v-150c8.402344 0 15 6.597656 15 15v45h135c8.402344 0 15 6.597656 15 15zm0 0" fill="#7ed8f6"/><path d="m210 435v62c0 8.398438-6.597656 15-15 15s-15-6.601562-15-15v-62c0-8.402344 6.597656-15 15-15s15 6.597656 15 15zm0 0" fill="#beebfa"/><path d="m210 435v62c0 8.398438-6.597656 15-15 15v-92c8.402344 0 15 6.597656 15 15zm0 0" fill="#7ed8f6"/><path d="m75 450h-60c-8.289062 0-15-6.710938-15-15v-60c0-8.289062 6.710938-15 15-15h60c8.289062 0 15 6.710938 15 15v60c0 8.289062-6.710938 15-15 15zm0 0" fill="#beebfa"/><path d="m225 360h-60c-8.402344 0-15 6.597656-15 15v60c0 8.398438 6.597656 15 15 15h60c8.402344 0 15-6.601562 15-15v-60c0-8.402344-6.597656-15-15-15zm0 0" fill="#beebfa"/><path d="m240 375v60c0 8.398438-6.597656 15-15 15h-30v-90h30c8.402344 0 15 6.597656 15 15zm0 0" fill="#7ed8f6"/><path d="m375 450h-60c-8.289062 0-15-6.710938-15-15v-60c0-8.289062 6.710938-15 15-15h60c8.289062 0 15 6.710938 15 15v60c0 8.289062-6.710938 15-15 15zm0 0" fill="#7ed8f6"/><path d="m195 0c-74.398438 0-135 60.597656-135 135 0 46.5 23.699219 87.898438 60 112.199219l75 22.800781 75-22.800781c36.300781-24.300781 60-65.699219 60-112.199219 0-74.402344-60.601562-135-135-135zm0 0" fill="#0b799d"/><path d="m330 135c0 46.5-23.699219 87.898438-60 112.199219l-75 22.800781v-270c74.398438 0 135 60.597656 135 135zm0 0" fill="#07485e"/><path d="m195 60c-24.902344 0-45 20.097656-45 45 0 24.898438 20.097656 45 45 45s45-20.101562 45-45c0-24.902344-20.097656-45-45-45zm0 0" fill="#fff5f5"/><path d="m240 105c0 24.898438-20.097656 45-45 45v-90c24.902344 0 45 20.097656 45 45zm0 0" fill="#e1ebf0"/><path d="m270 225v22.199219c-21.597656 14.398437-47.101562 22.800781-75 22.800781s-53.402344-8.402344-75-22.800781v-22.199219c0-41.398438 33.601562-75 75-75s75 33.601562 75 75zm0 0" fill="#fff5f5"/><path d="m270 225v22.199219c-21.597656 14.398437-47.101562 22.800781-75 22.800781v-120c41.398438 0 75 33.601562 75 75zm0 0" fill="#e1ebf0"/></svg>

<svg xmlns="http://www.w3.org/2000/svg" width="390" height="512" viewBox="0 0 390 512">
  <g id="admin" transform="translate(0 0)">
    <path id="Path_1" data-name="Path 1" d="M45,512a14.994,14.994,0,0,1-15-15V435a15,15,0,0,1,30,0v62A14.994,14.994,0,0,1,45,512Zm0,0" fill="#dbdbdb"/>
    <path id="Path_2" data-name="Path 2" d="M345,512a14.994,14.994,0,0,1-15-15V435a15,15,0,0,1,30,0v62A14.994,14.994,0,0,1,345,512Zm0,0" fill="#b8b8b8"/>
    <path id="Path_3" data-name="Path 3" d="M360,315v60a15,15,0,0,1-30,0V330H210v45a15,15,0,0,1-30,0V330H60v45a15,15,0,0,1-30,0V315a14.851,14.851,0,0,1,15-15H180V255a15,15,0,0,1,30,0v45H345A14.851,14.851,0,0,1,360,315Zm0,0" fill="#dbdbdb"/>
    <path id="Path_4" data-name="Path 4" d="M360,315v60a15,15,0,0,1-30,0V330H210v45a14.854,14.854,0,0,1-15,15V240a14.851,14.851,0,0,1,15,15v45H345A14.851,14.851,0,0,1,360,315Zm0,0" fill="#b8b8b8"/>
    <path id="Path_5" data-name="Path 5" d="M210,435v62a15,15,0,0,1-30,0V435a15,15,0,0,1,30,0Zm0,0" fill="#dbdbdb"/>
    <path id="Path_6" data-name="Path 6" d="M210,435v62a14.854,14.854,0,0,1-15,15V420A14.851,14.851,0,0,1,210,435Zm0,0" fill="#b8b8b8"/>
    <path id="Path_7" data-name="Path 7" d="M75,450H15A14.994,14.994,0,0,1,0,435V375a14.994,14.994,0,0,1,15-15H75a14.994,14.994,0,0,1,15,15v60A14.994,14.994,0,0,1,75,450Zm0,0" fill="#dbdbdb"/>
    <path id="Path_8" data-name="Path 8" d="M225,360H165a14.851,14.851,0,0,0-15,15v60a14.854,14.854,0,0,0,15,15h60a14.854,14.854,0,0,0,15-15V375A14.851,14.851,0,0,0,225,360Zm0,0" fill="#dbdbdb"/>
    <path id="Path_9" data-name="Path 9" d="M240,375v60a14.854,14.854,0,0,1-15,15H195V360h30A14.851,14.851,0,0,1,240,375Zm0,0" fill="#b8b8b8"/>
    <path id="Path_10" data-name="Path 10" d="M375,450H315a14.994,14.994,0,0,1-15-15V375a14.994,14.994,0,0,1,15-15h60a14.994,14.994,0,0,1,15,15v60A14.994,14.994,0,0,1,375,450Zm0,0" fill="#b8b8b8"/>
    <path id="Path_11" data-name="Path 11" d="M195,0C120.6,0,60,60.6,60,135a134.972,134.972,0,0,0,60,112.2L195,270l75-22.8A134.972,134.972,0,0,0,330,135C330,60.6,269.4,0,195,0Zm0,0" fill="rgba(255,255,255,0.92)"/>
    <path id="Path_12" data-name="Path 12" d="M330,135a134.972,134.972,0,0,1-60,112.2L195,270V0c74.4,0,135,60.6,135,135Zm0,0" fill="#fff"/>
    <path id="Path_13" data-name="Path 13" d="M195,60a45,45,0,1,0,45,45A44.937,44.937,0,0,0,195,60Zm0,0" fill="#fff5f5"/>
    <path id="Path_14" data-name="Path 14" d="M240,105a44.939,44.939,0,0,1-45,45V60A44.937,44.937,0,0,1,240,105Zm0,0" fill="#e1ebf0"/>
    <path id="Path_15" data-name="Path 15" d="M270,225v22.2a134.751,134.751,0,0,1-150,0V225a75,75,0,0,1,150,0Zm0,0" fill="#fff5f5"/>
    <path id="Path_16" data-name="Path 16" d="M270,225v22.2A134.117,134.117,0,0,1,195,270V150A75.029,75.029,0,0,1,270,225Zm0,0" fill="#e1ebf0"/>
  </g>
</svg>
